X:239
T:Barbara Emslie
C:Joe Buchanan's Scottish Tome - Page 298.2
I:298 2
R:Jig
Z:Carl Allison
L:1/8
M:6/8
K:D
g | f>ed e>dB | d>BA F>ED | F>AB A>FA | B>ee e2 g |
f>ed e>dB | d>BA F>ED | F>AB A>FE | F>DD D2 :|
D | F>B A>FE | F>ED B,>DE | F>AB A>FA | B>ee e2 D |
F>AB A>FE | F>ED B,>DE | F>AB A>FE | F>DD D2 D |
F>AB A>FE | F>ED B,>DE | F>AB A>FA | B>ee e>fg |
f>ed e>dB | d>BA F>ED | F>AB A>FE | F>DD D2 |]
